X:1
T:Luffarbruden
R:Polkett
C:Gunnar Fjellström
O:Arjeplog, Lappland
Z:ABC-transkribering av Johan Dahlberg
M:4/4
L:1/8
K:F
C|:CC A,C FF CF|AA FA c3 c|BB cB GG BG|AA cA F3 F|
CC A,C FF CF|AA FA c3 c|BB cB GG EG|F2F2 (F2F) D::
D2 B2 B3 C|C2 A2 A3 A|GF GA BG EG|FE FG A2 FD|
D2 B2 B3 C|C2 A2 A3 A|GF GA BG EG|F2F2 F3 D:|

